X:18643
T:Wheels of the World, The
R:reel
D:Matt Molloy, Sean Keane, Liam O'Flynn: The Fire Aflame
Z:id:hn-reel-522
M:C|
K:Ador
eAAB cBcA|GE~E2 G2EG|AGAB cBcd|1 efge d2gf:|2 efge dcBc||
|:dg~g2 dgfg|ea~a2 ea~a2|efge defg|1 afge dcBc:|2 afge d2gf||


